X: 418
T:Pretty Girls of Mayo
R:reel
S:Mike Rafferty
Z:Michael Hogan
M:C|
L:1/8
K:G
|~G2GF|D~G3 A2de|fdeg fdcA|G2FG Azde|fdcA BGAF|!
D~G3 A2de|fdeg fdcA|G2FG Adde|fdcA AGG2||!
~g3e fdde|fgag fdd2|~g3e fdeg|fdcA G2(3Bcd|!
g3e fdde|fgag fdd2|defg abag|fdcA G4||!
<end>
<start>
